X:1
T:Title
%%score { ( 1 3 ) | 2 }
L:1/8
Q:1/4=126
M:6/4
K:Bb
V:1 treble nm="Grand Piano"
V:3 treble 
V:2 bass 
V:1
 [DF]4 [EG]2 [DF]4 [Fd]2 | c2 B2 G2 [DB]4 [DF]2 | [B,D]2 [B,D]2 [CE]2 [DF]4 [FB]2 | %3
w: John~R.~Sweney * * *|||
 [=Ed]2 [Ec]2 [Ec]2 [Fc]6 | [Fd]4 [Ec]2 [DB]4 [Fd]2 | [Gc]2 B2 G2 [DB]4 [DF]2 | z6 z4 c2 | %7
w: ||||
 d4 c2 [DB]6 | c4 A2 G4 F2 | [DF]2 [EG]2 [DF]2 D6 | c4 A2 G4 F2 | [DF]2 [FB]2 c2 d6 | %12
w: |||||
 [^Fd]4 [Ac]2 [GB]4 [Gd]2 | [Gc]2 B2 G2 [DB]4 [DF]2 | z6 z4 c2 | d4 c2 [DB]6 |] %16
w: ||||
V:2
 [B,,B,]4 [B,,B,]2 [B,,B,]4 [B,,B,]2 | [E,G,E]2 [E,G,E]2 [E,E]2 [B,,F,]4 [B,,B,]2 | %2
 [B,,F,]2 [B,,F,]2 [B,,F,]2 [B,,B,]4 [D,B,]2 | [C,G,]2 [C,G,]2 [C,B,]2 [F,A,]6 | %4
 [B,,B,]4 [B,,F,]2 [B,,F,]4 [B,,B,]2 | [E,B,]2 [E,G,E]2 [E,E]2 [B,,F,]4 [B,,B,]2 | %6
 [B,,F,]2 [B,,F,]2 [B,,F,]2 [B,,B,]2 [D,B,]2 [E,B,]2 | [F,B,F]4 [F,A,E]2 [B,,B,]6 | %8
 [F,A,F]4 [F,CF]2 [F,B,E]4 [F,A,E]2 | [B,,B,]2 [B,,B,]2 [B,,B,]2 [B,,F,B,]6 | %10
 [F,A,F]4 [F,CF]2 [F,B,E]4 [F,A,E]2 | [B,,B,]2 [D,B,]2[K:treble] [F,A,F]2 [B,F]6 | %12
 [D,A,]4 [^F,D]2 [G,D]4 [G,B,]2 | [E,B,]2 [E,G,E]2 [E,E]2 [B,,F,]4 [B,,B,]2 | %14
 [B,,F,]2 [B,,F,]2 [B,,F,]2 [B,,B,]2 [D,B,]2 [E,B,]2 | [F,B,F]4 [F,A,E]2 [B,,B,]6 |] %16
V:3
 x12 | x12 | x12 | x12 | x12 | x12 | [B,D]2 [B,D]2 [CE]2 [DF]2 [FB]2 G^F | x12 | x12 | x12 | x12 | %11
 x12 | x12 | x12 | [B,D]2 [B,D]2 [CE]2 [DF]2 [FB]2 G^F | x12 |] %16

